X:1
T:Title
%%score { 1 | 2 }
L:1/8
M:4/4
K:F
V:1 treble nm="Grand Piano"
V:2 bass 
V:1
 z4 z2[Q:1/4=100] A2 | A3 A BAGF | [EG]4 z2 [EG]2 | [GB]3 [GB] [Ac][GB][FA][EG] |[M:3/4] [FA]4 z2 | %5
[M:1/4] [Ac]2 |[M:4/4] [Ac]3 A AAB[Bd] | [Ac]4 z2 [A,CF]2 | [CFA]3 [DFB] [CFA][B,EG][A,CF][G,CE] | %9
 [A,CF]6 z2 | [FAc][FAc] z2 [CFA][CFA] z2 | [EB][EB] z2 EE z2 | F3 F GGA[Ac] | %13
 [Ac]3 [FA] [EG]2 z2 | [Ac][Ac] z2 [FA][FA] z2 | [EB][EB] z2 EE z2 | F3 G A[Fd][Fc][FA] | %17
[M:9/8] G3 F F2- F z z |] %18
V:2
 z4 z2 [F,CF]2 | [F,CF]3 [F,CF] [F,DF][F,CF][F,B,C][F,A,C] | [C,C]4 z2 [C,C]2 | %3
 [C,C]3 [C,C] [C,C][C,C][C,C][C,C] |[M:3/4] [F,C]4 z2 |[M:1/4] [F,F]2 | %6
[M:4/4] [F,F]3 [F,CF] [F,CF][F,CF][F,DF][F,F] | [F,F]4 z2 C,2 | C,3 C, C,C,C,C, | F,6 z2 | %10
 F,F, z2 F,F, z2 | [C,C][C,C] z2 [C,B,C][C,B,C] z2 | [A,C]3 [A,C] [G,CE][G,CE][F,CF][F,F] | %13
 [F,F]3 [F,C] [C,C]2 z2 | [F,F][F,F] z2 [F,C][F,C] z2 | [C,C][C,C] z2 [C,B,C][C,B,C] z2 | %16
 [A,C]3 [G,CE] [F,CF][B,,B,][C,A,][C,C] |[M:9/8] [C,B,C]3 [F,A,C] [F,A,C]2- [F,A,C] z z |] %18

